X:1
T:I Know Whom I Have Believed
T:Charles Austin Miles, 1912
T:I Know Whom I Have Believed
T:Public Domain
T:Public Domain
C:Charles Austin Miles, 1912
Z:Public Domain
%%score ( 1 2 ) ( 3 4 )
L:1/8
M:4/4
K:C
V:1 treble 
V:2 treble 
V:3 bass 
V:4 bass 
V:1
 [CE]>[CE] [CE]>[DF] [EG]2 [EG]2 | [Ec]>[Ec] [Ec]>[EB] [FA]4 | %2
w: 1.~Prais- es be to God, for|I am glo- ry bound,|
w: 2.~I am un- der grace, no|long- er un- der law,|
w: 3.~When the days are drear- y,|spent in pain or woe,|
w: 4.~Not a- lone for me, but|all who will may find|
 [B,D]>[B,D] [B,D]>[CE] [DF]>[DG] [FB]>[FA] | ([EG]4 [CE]4) | [CE]>[CE] [CE]>[DF] [EG]2 [EG]2 | %5
w: For I am a mir- a- cle of|grace; *|Ask of God a sign, it|
w: In the bless- èd light of love I’m|free; *|To the Word of God I|
w: When the watch- es of the night are|long, *|I’ll be trust- ing Je- sus,|
w: Sweet- est con- so- la- tion for his|woe; *|Seek the will of God, and|
 [Ec]>[Ec] [Ec]>[EB] [FA]4 | [^FA]>[FA] [F^G]>[FA] [FB]2 [Fc]2 | [Fd]6 ||"^Refrain" [EG]2 | %9
w: sure- ly can be found|In a hap- py Christ- ian’s|face.||
w: go when sore dis- tressed,|This is what it says to|me:|“I|
w: so in ev- ery place|I can al- ways sing this|song.||
w: for the word of Christ|To the bless- èd Bi- ble|go.||
 [CE]2 [CE]3 [CD] C>[CE] | [EG]2 [EG]3 [EG] [^D^F]>[EG] | [FA]2 [FA]3 [F^G] [FA]>[FB] | %12
w: |||
w: know whom I have be-|èd And am per- suad-|ed that He is a-|
w: |||
w: |||
 [Ec]2 [Ec]4 [EG]2 | [CE]2 [CE]3 [CD] C>[CE] | [EG]2 [EG]4 [^D^F]>[EG] | [FA]2 [FA]2 [FB]2 [FB]2 | %16
w: ||||
w: ble To keep|that which I’ve com- mit-|Un- to Him a-|gainst that day.” O|
w: ||||
w: ||||
 ([Ec]2 [Fd]2 [Ge]2) [Fd]2 | [Ec]4 [DB]4 | [Ec]6 z2 |] %19
w: |||
w: praise * * the|Lord! *||
w: |||
w: |||
V:2
 x8 | x8 | x8 | x8 | x8 | x8 | x8 | x6 || x2 | x6 C3/2 x/ | x8 | x8 | x8 | x6 C3/2 x/ | x8 | x8 | %16
w: ||||||||||||||||
w: |||||||||liev-||||ted|||
 x8 | x8 | x8 |] %19
w: |||
w: |||
V:3
 [C,G,]>[C,G,] [C,G,]>[C,G,] [C,C]2 [C,C]2 | [C,G,]>[C,G,] [C,G,]>[C,C] [F,C]4 | %2
 G,>G, G,>G, [G,B,]>[G,B,] [G,D]>[G,B,] | (C4 G,4) | [C,G,]>[C,G,] [C,G,]>[C,G,] [C,C]2 [C,C]2 | %5
 [C,G,]>[C,G,] [C,G,]>[C,C] [F,C]4 | [D,C]>[D,C] [D,B,]>[D,C] [D,D]2 [D,C]2 | [G,B,]6 || [C,C]2 | %9
 [C,G,]2 [C,G,]3 [C,F,] [C,E,]>[C,G,] | [C,C]2 [C,C]3 [C,C] [C,C]>[C,C] | %11
 [F,D]2 [F,C]3 [F,B,] [F,C]>[D,G,] | [C,G,]2 [C,G,]4 [C,C]2 | %13
 [C,G,]2 [C,G,]3 [C,F,] [C,E,]>[C,G,] | [C,C]2 [C,C]4 [C,C]>[C,C] | [F,C]2 [F,C]2 [D,G,]2 [D,G,]2 | %16
 ([C,G,]2 [G,B,]2 C2) [F,A,]2 | G,4 [G,,G,]4 | [C,G,]6 z2 |] %19
V:4
 x8 | x8 | G,>G, G,>G, x4 | C,8 | x8 | x8 | x8 | x6 || x2 | x8 | x8 | x8 | x8 | x8 | x8 | x8 | %16
 x4 C2 x2 | G,4 x4 | x8 |] %19

